X: 10854
T: Drimacoo
R: reel
M: 4/4
K: Dmajor
BABc dcdc|BAFA BEEA|BAFA d3 e|f2 eg fddc|
~B3 c d3 c|BAFA BE E2|BAFA dcde|(3faf eg fddc|
d2 ad bdad|fdad feeg|fdad bdad|ABde fddc|
d2 ad bdad|fdad feeB|~e3 f gbag|f2 eg fddc|

